assets/images/ico_v.svg

<svg width="12" height="10" viewBox="0 0 12 10" fill="none" xmlns="http://www.w3.org/2000/svg">
<path d="M1.82822 5.48186C1.62262 5.31318 1.35472 5.22165 1.07825 5.22565C0.801776 5.22965 0.537184 5.32887 0.33755 5.50341C0.137915 5.67795 0.018004 5.9149 0.00186842 6.16673C-0.0142672 6.41856 0.0745663 6.66665 0.250551 6.86122L2.68279 9.19013C2.78462 9.28758 2.90698 9.36527 3.04254 9.41851C3.17809 9.47176 3.32404 9.49947 3.47162 9.49998C3.61842 9.50076 3.7639 9.47462 3.89941 9.42311C4.03491 9.3716 4.1577 9.29577 4.26045 9.20012L11.6886 2.20339C11.7894 2.10889 11.8687 1.99721 11.9221 1.87473C11.9755 1.75226 12.0019 1.62138 11.9999 1.48959C11.9979 1.35779 11.9674 1.22765 11.9102 1.10659C11.8531 0.985538 11.7703 0.875941 11.6667 0.784059C11.5631 0.692176 11.4407 0.619808 11.3065 0.571086C11.1722 0.522365 11.0288 0.498243 10.8843 0.5001C10.7398 0.501956 10.5972 0.529753 10.4645 0.581905C10.3318 0.634057 10.2117 0.709542 10.111 0.804049L3.48258 7.06112L1.82822 5.48186Z" fill="#DB4028"/>
</svg>

<svg width="12" height="10" fill="none" xmlns="http://www.w3.org/2000/svg"><path d="M1.828 5.482a1.159 1.159 0 00-.75-.256 1.152 1.152 0 00-.74.277.965.965 0 00-.336.664c-.016.252.073.5.249.694l2.432 2.33c.102.097.224.174.36.228A1.186 1.186 0 004.26 9.2l7.429-6.997a1 1 0 00.233-.328.927.927 0 00-.012-.768 1.006 1.006 0 00-.243-.323 1.117 1.117 0 00-.36-.213 1.194 1.194 0 00-.843.01 1.108 1.108 0 00-.353.223L3.483 7.061l-1.655-1.58z" fill="#DB4028"/></svg>
